packages/components/src/components/icon/underlying/ic-underlying-OTC_FCHI.svg

<?xml version="1.0" encoding="UTF-8"?>
<svg width="32px" height="32px" viewBox="0 0 32 32" version="1.1" xmlns="http://www.w3.org/2000/svg" xmlns:xlink="http://www.w3.org/1999/xlink">
    <!-- Generator: Sketch 64 (93537) - https://sketch.com -->
    <title>assets/otc/ic-otcfrench</title>
    <desc>Created with Sketch.</desc>
    <g id="assets/otc/ic-otcfrench" stroke="none" stroke-width="1" fill="none" fill-rule="evenodd">
        <g id="assets/otc/ic-otc">
            <g id="assets/flags/normal/ic-france" transform="translate(4.000000, 8.000000)">
                <g id="Group">
                    <path d="M16.0000001,0 L22.0000001,0 C23.1045696,-2.02906125e-16 24.0000001,0.8954305 24.0000001,2 L24.0000001,14 C24.0000001,15.1045695 23.1045696,16 22.0000001,16 L16.0000001,16 L16.0000001,16 L16.0000001,0 Z" id="third" fill="#FF002D" fill-rule="nonzero"></path>
                    <rect id="second" fill="#FFFFFF" fill-rule="nonzero" x="8.00000003" y="0" width="8.00000003" height="16.0000001"></rect>
                    <path d="M2,0 L8,0 L8,0 L8,16 L2,16 C0.8954305,16 1.3527075e-16,15.1045695 0,14 L0,2 C-1.3527075e-16,0.8954305 0.8954305,2.02906125e-16 2,0 Z" id="first" fill="#001F9B" fill-rule="nonzero"></path>
                    <rect id="border" stroke-opacity="0.04" stroke="#000000" fill-rule="nonzero" x="0.50000005" y="0.5" width="23" height="15" rx="1"></rect>
                </g>
            </g>
        </g>
    </g>
</svg>

<svg width="32" height="32" xmlns="http://www.w3.org/2000/svg"><g fill-rule="nonzero" transform="translate(4 8)" fill="none"><path d="M16 0h6a2 2 0 012 2v12a2 2 0 01-2 2h-6V0z" fill="#FF002D"/><path fill="#FFF" d="M8 0h8v16H8z"/><path d="M2 0h6v16H2a2 2 0 01-2-2V2a2 2 0 012-2z" fill="#001F9B"/><rect stroke-opacity=".04" stroke="#000" x=".5" y=".5" width="23" height="15" rx="1"/></g></svg>
